X:1
T:The Gowlan Road
L:1/8
M:4/4
I:linebreak $
K:G
V:1 treble 
V:1
 D3 c B2 cA | BG G2 AEGE | DEGA B3 c | dBAc BAGE | d2 Ac B2 cA | BG G2 AEGE |$ DEGA B3 c | %7
 dBAc BGGA |: Bd d2 edgd | BddB AGED | BcdB efgA | dBAc BG G2 :| %12
